X:1
T: Astoria Lass
N:
C:tune is "Dance" by Purcell
S:
A:
O:
R:
M:3/4
K:G
I:speed 150
%W: A1
% voice 1 (1 lines, 28 notes)
K:G
M:3/4
L:1/16
B4 B2 c2 e2 d2 |B8 G4 |F4 F2 G2 B2 G2 |E8 F4 |G2 F2 G2 A2 B4 |c2 B2 c4 e4 |c2 A2 g4 f4 |^d12 |
%W: A2
% voice 1 (1 lines, 28 notes)
B4 B2 c2 e2 d2 |B8 G4 |F4 F2 G2 B2 G2 |E8 F4 |G2 F2 G2 A2 B4 |c2 B2 c4 e4 |c2 A2 g4 f4 |^d12 |
%W: B1
% voice 1 (1 lines, 31 notes)
G4 E2 G2 A4 |A4 F2 A2 B4 |c2 B2 A4 d4 |d4 E2 F2 G2 A2 |B4 e2 f2 g2 e2 |^d2 ^c2 B4 g4 |B4 B2 ^c2 ^d4 |e12 |
%W: B2
% voice 1 (1 lines, 31 notes)
G4 E2 G2 A4 |A4 F2 A2 B4 |c2 B2 A4 d4 |d4 E2 F2 G2 A2 |B4 e2 f2 g2 e2 |^d2 ^c2 B4 g4 |B4 B2 ^c2 ^d4 |e12 ||
